X: 5325
T: Brúigh Isteach Liom, A Shiobháinín
R: polka
M: 2/4
K: Gmajor
|:D|GA Bc|d2 dB|c2 cA|B2 BA|
GA Bc|d2 de|f2 dc|1 AG G:|2 AG G2||
|:g2 fe|d2 dB|c2 cA|B2 Bd|
g2 fe|d2 de|f2 dc|1 AG G2:|2 AG G||

